svg/emoji_u1f9d1_1f9b0.svg

<?xml version="1.0" encoding="UTF-8" standalone="no"?>
<svg
   xmlns:dc="http://purl.org/dc/elements/1.1/"
   xmlns:cc="http://creativecommons.org/ns#"
   xmlns:rdf="http://www.w3.org/1999/02/22-rdf-syntax-ns#"
   xmlns:svg="http://www.w3.org/2000/svg"
   xmlns="http://www.w3.org/2000/svg"
   xmlns:sodipodi="http://sodipodi.sourceforge.net/DTD/sodipodi-0.dtd"
   xmlns:inkscape="http://www.inkscape.org/namespaces/inkscape"
   width="128"
   height="128"
   style="enable-background:new 0 0 128 128;"
   version="1.1"
   id="svg12"
   sodipodi:docname="emoji_u1f9d1.svg"
   inkscape:version="0.92+devel unknown">
  <metadata
     id="metadata18">
    <rdf:RDF>
      <cc:Work
         rdf:about="">
        <dc:format>image/svg+xml</dc:format>
        <dc:type
           rdf:resource="http://purl.org/dc/dcmitype/StillImage" />
      </cc:Work>
    </rdf:RDF>
  </metadata>
  <defs
     id="defs16">
    <radialGradient
       gradientTransform="translate(-7.748519,-10.723223)"
       r="48.147202"
       gradientUnits="userSpaceOnUse"
       cy="25.4744"
       cx="63.063202"
       id="SVGID_3_">
      <stop
         id="stop47"
         style="stop-color:#eb4a1e"
         offset="0" />
      <stop
         id="stop49"
         style="stop-color:#543930"
         offset="1" />
    </radialGradient>
  </defs>
  <sodipodi:namedview
     pagecolor="#ffffff"
     bordercolor="#666666"
     inkscape:document-rotation="0"
     borderopacity="1"
     objecttolerance="10"
     gridtolerance="10"
     guidetolerance="10"
     inkscape:pageopacity="0"
     inkscape:pageshadow="2"
     inkscape:window-width="1680"
     inkscape:window-height="986"
     id="namedview14"
     showgrid="false"
     inkscape:object-nodes="true"
     inkscape:object-paths="true"
     inkscape:zoom="5.4453125"
     inkscape:cx="64.34249"
     inkscape:cy="61.100287"
     inkscape:window-x="0"
     inkscape:window-y="27"
     inkscape:window-maximized="1"
     inkscape:current-layer="svg12" />
  <path
     style="fill:#e49800;fill-opacity:1"
     d="M 106.63281 66.039062 C 106.72898 68.560317 106.7793 71.134087 106.7793 73.769531 C 106.7793 78.270449 106.42972 82.362297 105.80273 86.105469 C 110.59641 85.338633 114.7793 82.264758 114.7793 75.880859 C 114.7793 67.400859 106.91016 66.039062 106.91016 66.039062 L 106.63281 66.039062 z "
     id="XMLID_865_" />
  <path
     style="fill:#e49800;fill-opacity:1"
     d="M 21.089844 66.039062 C 21.089844 66.039062 13.220703 67.400859 13.220703 75.880859 C 13.220703 82.265749 17.404605 85.341187 22.199219 86.107422 C 21.570058 82.362302 21.220703 78.26856 21.220703 73.769531 C 21.220703 71.133925 21.270954 68.560594 21.367188 66.039062 L 21.089844 66.039062 z "
     id="XMLID_862_" />
  <path
     inkscape:connector-curvature="0"
     style="fill:#fac01b;fill-opacity:1"
     d="m 64,10.55 c -33.91,0 -42.78,26.29 -42.78,63.22 0,38.29 24.61,48.19 42.78,48.19 17.9,0 42.78,-9.62 42.78,-48.19 0,-36.94 -8.87,-63.22 -42.78,-63.22 z"
     id="XMLID_860_" />
  <path
     inkscape:connector-curvature="0"
     style="fill:#444444"
     d="m 49.91,77.19 c 0,3.81 -2.55,6.9 -5.71,6.9 -3.16,0 -5.73,-3.09 -5.73,-6.9 0,-3.82 2.57,-6.91 5.73,-6.91 3.16,0 5.71,3.09 5.71,6.91"
     id="XMLID_976_" />
  <path
     inkscape:connector-curvature="0"
     style="fill:#444444"
     d="m 78.08,77.19 c 0,3.81 2.56,6.9 5.72,6.9 3.15,0 5.72,-3.09 5.72,-6.9 0,-3.82 -2.57,-6.91 -5.72,-6.91 -3.16,0 -5.72,3.09 -5.72,6.91"
     id="XMLID_971_" />
  <path
     inkscape:connector-curvature="0"
     style="fill:#513f35"
     d="m 76.38,100.52 c -1.73,0 -12.38,0 -12.38,0 0,0 -10.65,0 -12.38,0 -1.42,0 -2.03,0.95 -1.09,2.38 1.31,2 6.19,5.85 13.47,5.85 7.28,0 12.16,-3.85 13.47,-5.85 0.94,-1.43 0.33,-2.38 -1.09,-2.38 z"
     id="XMLID_969_" />
  <path
     inkscape:connector-curvature="0"
     style="fill:#e49800;fill-opacity:1"
     d="m 69.98,89.99 c -2.11,0.6 -4.29,0.89 -5.98,0.89 -1.69,0 -3.87,-0.29 -5.98,-0.89 -0.9,-0.26 -1.25,0.6 -0.93,1.17 0.67,1.18 3.36,3.55 6.91,3.55 3.55,0 6.24,-2.37 6.91,-3.55 0.33,-0.57 -0.03,-1.42 -0.93,-1.17 z"
     id="XMLID_960_" />
  <path
     inkscape:connector-curvature="0"
     id="path52"
     style="opacity:1;vector-effect:none;fill:#eb4a1e;fill-opacity:1;stroke-width:1;stroke-linecap:butt;stroke-linejoin:miter;stroke-miterlimit:4;stroke-dasharray:none;stroke-dashoffset:0;stroke-opacity:1"
     d="M 65.451149,5.7293759 C 40.741135,5.8042924 38.174936,16.386255 37.512691,16.264516 c -7.119133,-1.329769 -16.887245,3.642817 -22.24729,12.248856 -13.8450582,22.24085 3.093925,39.790052 3.445743,41.747247 1.852216,10.104369 2.902184,11.838612 2.902184,11.838612 0,0 0.409041,-13.870724 8.78023,-22.916897 5.349698,-5.777939 10.471748,-18.495023 10.471748,-18.495023 0,0 15.03503,4.98195 26.469102,11.078285 9.674985,5.150512 15.707622,11.864908 15.707622,11.864908 0,0 1.810826,-5.150513 0.393208,-10.53514 C 80.372355,41.530122 68.379514,36.314057 68.379514,36.314057 c 0,0 5.991247,1.554519 14.145137,8.231456 17.984089,14.749196 22.764669,41.559956 22.764669,41.559956 6.16715,-5.187971 16.43195,-17.79268 15.17989,-36.521818 C 119.83801,40.237812 110.20442,5.5889074 65.451149,5.7293759 Z"
     sodipodi:nodetypes="ccccccccccccccc" />
</svg>

<svg xmlns="http://www.w3.org/2000/svg" width="128" height="128"><path d="M106.633 66.04c.096 2.52.146 5.094.146 7.73 0 4.5-.35 8.592-.976 12.335 4.793-.766 8.976-3.84 8.976-10.224 0-8.48-7.869-9.842-7.869-9.842h-.277zM21.09 66.04s-7.87 1.36-7.87 9.84c0 6.386 4.185 9.461 8.98 10.227-.63-3.745-.98-7.838-.98-12.337 0-2.636.051-5.21.147-7.73h-.277z" fill="#e49800"/><path d="M64 10.55c-33.91 0-42.78 26.29-42.78 63.22 0 38.29 24.61 48.19 42.78 48.19 17.9 0 42.78-9.62 42.78-48.19 0-36.94-8.87-63.22-42.78-63.22z" fill="#fac01b"/><path d="M49.91 77.19c0 3.81-2.55 6.9-5.71 6.9s-5.73-3.09-5.73-6.9c0-3.82 2.57-6.91 5.73-6.91 3.16 0 5.71 3.09 5.71 6.91M78.08 77.19c0 3.81 2.56 6.9 5.72 6.9 3.15 0 5.72-3.09 5.72-6.9 0-3.82-2.57-6.91-5.72-6.91-3.16 0-5.72 3.09-5.72 6.91" fill="#444"/><path d="M76.38 100.52H64 51.62c-1.42 0-2.03.95-1.09 2.38 1.31 2 6.19 5.85 13.47 5.85s12.16-3.85 13.47-5.85c.94-1.43.33-2.38-1.09-2.38z" fill="#513f35"/><path d="M69.98 89.99c-2.11.6-4.29.89-5.98.89-1.69 0-3.87-.29-5.98-.89-.9-.26-1.25.6-.93 1.17.67 1.18 3.36 3.55 6.91 3.55 3.55 0 6.24-2.37 6.91-3.55.33-.57-.03-1.42-.93-1.17z" fill="#e49800"/><path d="M65.451 5.73c-24.71.074-27.276 10.656-27.938 10.535-7.12-1.33-16.888 3.642-22.248 12.248-13.845 22.241 3.094 39.79 3.446 41.748 1.852 10.104 2.902 11.838 2.902 11.838s.41-13.87 8.78-22.917c5.35-5.778 10.472-18.495 10.472-18.495S55.9 45.67 67.335 51.766c9.674 5.15 15.707 11.865 15.707 11.865s1.81-5.151.393-10.536C80.372 41.53 68.38 36.315 68.38 36.315s5.99 1.554 14.145 8.23c17.984 14.75 22.764 41.56 22.764 41.56 6.167-5.188 16.432-17.792 15.18-36.521-.631-9.346-10.265-43.995-55.018-43.855z" fill="#eb4a1e"/></svg>
